modules/hawcons-filled/icons/icon-78-document-error.svg

<?xml version="1.0" encoding="UTF-8" standalone="no"?>
<svg width="32px" height="32px" viewBox="0 0 32 32" version="1.1" xmlns="http://www.w3.org/2000/svg" xmlns:xlink="http://www.w3.org/1999/xlink" xmlns:sketch="http://www.bohemiancoding.com/sketch/ns">
    <!-- Generator: Sketch 3.0.3 (7891) - http://www.bohemiancoding.com/sketch -->
    <title>icon 78 document error</title>
    <desc>Created with Sketch.</desc>
    <defs></defs>
    <g id="Page-1" stroke="none" stroke-width="1" fill="none" fill-rule="evenodd" sketch:type="MSPage">
        <g id="icon-78-document-error" sketch:type="MSArtboardGroup" fill="#929292">
            <path d="M14.0069444,29 L6.99742191,29 C5.89092539,29 5,28.1012878 5,26.9926701 L5,4.00732994 C5,2.89833832 5.8992496,2 7.0085302,2 L17,2 L17,8.00189865 C17,9.11329365 17.8980806,10 19.0059191,10 L24,10 L24,23.9294118 L20.5,18 L14.0069444,29 L14.0069444,29 L14.0069444,29 Z M18,2 L18,7.99707067 C18,8.55097324 18.4509752,9 18.990778,9 L24,9 L18,2 L18,2 Z M20.5,20 L27,31 L14,31 L20.5,20 L20.5,20 Z M20,24 L20,27 L21,27 L21,24 L20,24 L20,24 Z M20,28 L20,29 L21,29 L21,28 L20,28 L20,28 Z" id="document-error" sketch:type="MSShapeGroup"></path>
        </g>
    </g>
</svg>

<svg width="32" height="32" xmlns="http://www.w3.org/2000/svg"><path d="M14.007 29h-7.01A2 2 0 0 1 5 26.993V4.007C5 2.898 5.9 2 7.009 2H17v6.002C17 9.113 17.898 10 19.006 10H24v13.93L20.5 18l-6.493 11zM18 2v5.997c0 .554.451 1.003.99 1.003H24l-6-7zm2.5 18L27 31H14l6.5-11zm-.5 4v3h1v-3h-1zm0 4v1h1v-1h-1z" fill="#929292" fill-rule="evenodd"/></svg>
